src/net/sf/gogui/images/gogui-setup-black.svg

<?xml version="1.0" encoding="UTF-8" standalone="no"?>
<!-- Created with Inkscape (http://www.inkscape.org/) -->

<svg
   xmlns:dc="http://purl.org/dc/elements/1.1/"
   xmlns:cc="http://creativecommons.org/ns#"
   xmlns:rdf="http://www.w3.org/1999/02/22-rdf-syntax-ns#"
   xmlns:svg="http://www.w3.org/2000/svg"
   xmlns="http://www.w3.org/2000/svg"
   xmlns:xlink="http://www.w3.org/1999/xlink"
   version="1.0"
   width="22"
   height="22"
   id="svg1910">
  <defs
     id="defs1912">
    <linearGradient
       id="linearGradient9454">
      <stop
         id="stop9456"
         style="stop-color:#eeeeec;stop-opacity:1"
         offset="0" />
      <stop
         id="stop9458"
         style="stop-color:#555753;stop-opacity:1"
         offset="1" />
    </linearGradient>
    <radialGradient
       cx="23.716686"
       cy="34.693275"
       r="9.457016"
       fx="23.836168"
       fy="28.83235"
       id="radialGradient9462"
       xlink:href="#linearGradient9454"
       gradientUnits="userSpaceOnUse"
       gradientTransform="matrix(0.952869,-0.209637,0.137367,0.624524,-3.116399,17.89217)" />
  </defs>
  <metadata
     id="metadata1915">
    <rdf:RDF>
      <cc:Work
         rdf:about="">
        <dc:format>image/svg+xml</dc:format>
        <dc:type
           rdf:resource="http://purl.org/dc/dcmitype/StillImage" />
        <dc:title></dc:title>
      </cc:Work>
    </rdf:RDF>
  </metadata>
  <g
     id="layer1">
    <path
       d="m 33.079155,32.901022 a 9.8943748,9.8943748 0 1 1 -0.075,-0.104095"
       transform="matrix(0.960196,0,0,0.960085,-14.51825,-27.58942)"
       id="path9460"
       style="fill:url(#radialGradient9462);fill-opacity:1;stroke:none;display:inline" />
    <path
       d="m 17.270837,21.570681 0,-4.038258 4.299844,-0.01798 0,-3.129393 -4.295997,0 -0.0038,-4.455735 -3.023398,0.00499 0.0019,4.442753 -4.3046535,0.03295 -0.015391,3.117413 4.32389,-0.01298 0.0029,4.04425 3.014742,0.01198 z"
       id="text1314"
       style="font-size:59.90107727px;font-style:normal;font-variant:normal;font-weight:bold;font-stretch:normal;text-align:start;line-height:125%;writing-mode:lr-tb;text-anchor:start;fill:#75a1d0;fill-opacity:1;stroke:#3465a4;stroke-width:0.85863799;stroke-linecap:butt;stroke-linejoin:miter;stroke-miterlimit:4;stroke-opacity:1;stroke-dasharray:none;font-family:Bitstream Vera Sans" />
  </g>
</svg>

<?xml version="1.0" encoding="UTF-8" standalone="no"?>
<!-- Created with Inkscape (http://www.inkscape.org/) -->
<svg
   xmlns:dc="http://purl.org/dc/elements/1.1/"
   xmlns:cc="http://web.resource.org/cc/"
   xmlns:rdf="http://www.w3.org/1999/02/22-rdf-syntax-ns#"
   xmlns:svg="http://www.w3.org/2000/svg"
   xmlns="http://www.w3.org/2000/svg"
   xmlns:xlink="http://www.w3.org/1999/xlink"
   xmlns:sodipodi="http://sodipodi.sourceforge.net/DTD/sodipodi-0.dtd"
   xmlns:inkscape="http://www.inkscape.org/namespaces/inkscape"
   width="22"
   height="22"
   id="svg1910"
   sodipodi:version="0.32"
   inkscape:version="0.44.1"
   sodipodi:docbase="/home/markus/gogui/src/net/sf/gogui/images"
   sodipodi:docname="gogui-setup-black.svg"
   inkscape:export-filename="/home/markus/gogui/src/net/sf/gogui/images/gogui-setup-black.png"
   inkscape:export-xdpi="90"
   inkscape:export-ydpi="90"
   version="1.0">
  <defs
     id="defs1912">
    <linearGradient
       id="linearGradient7916">
      <stop
         style="stop-color:#ffffff;stop-opacity:1;"
         offset="0"
         id="stop7918" />
      <stop
         style="stop-color:#ffffff;stop-opacity:0.34020618;"
         offset="1.0000000"
         id="stop7920" />
    </linearGradient>
    <linearGradient
       id="linearGradient1322">
      <stop
         id="stop1324"
         offset="0.0000000"
         style="stop-color:#729fcf" />
      <stop
         id="stop1326"
         offset="1.0000000"
         style="stop-color:#5187d6;stop-opacity:1.0000000;" />
    </linearGradient>
    <linearGradient
       id="linearGradient9454"
       inkscape:collect="always">
      <stop
         id="stop9456"
         offset="0"
         style="stop-color:#eeeeec;stop-opacity:1" />
      <stop
         id="stop9458"
         offset="1"
         style="stop-color:#555753;stop-opacity:1" />
    </linearGradient>
    <radialGradient
       inkscape:collect="always"
       xlink:href="#linearGradient9454"
       id="radialGradient9462"
       gradientUnits="userSpaceOnUse"
       gradientTransform="matrix(0.952869,-0.209637,0.137367,0.624524,-3.116399,17.89217)"
       cx="23.716686"
       cy="34.693275"
       fx="23.836168"
       fy="28.83235"
       r="9.457016" />
    <linearGradient
       inkscape:collect="always"
       xlink:href="#linearGradient1322"
       id="linearGradient2123"
       gradientUnits="userSpaceOnUse"
       gradientTransform="matrix(0.45965,0,0,0.478358,-14.55984,6.531786)"
       x1="34.892849"
       y1="36.422989"
       x2="45.918697"
       y2="48.547989" />
    <linearGradient
       inkscape:collect="always"
       xlink:href="#linearGradient7916"
       id="linearGradient2125"
       gradientUnits="userSpaceOnUse"
       x1="16.874998"
       y1="22.851799"
       x2="27.900846"
       y2="34.976799"
       gradientTransform="matrix(0.45965,0,0,0.478358,-6.277902,13.02368)" />
  </defs>
  <sodipodi:namedview
     id="base"
     pagecolor="#ffffff"
     bordercolor="#666666"
     borderopacity="1.0"
     inkscape:pageopacity="0.0"
     inkscape:pageshadow="2"
     inkscape:zoom="18.5"
     inkscape:cx="8.7352284"
     inkscape:cy="6.5729575"
     inkscape:current-layer="layer1"
     showgrid="true"
     inkscape:grid-bbox="true"
     inkscape:document-units="px"
     inkscape:object-bbox="true"
     objecttolerance="10000"
     gridtolerance="10000"
     guidetolerance="10000"
     gridempspacing="2"
     inkscape:window-width="868"
     inkscape:window-height="805"
     inkscape:window-x="116"
     inkscape:window-y="118"
     gridspacingx="0.5px"
     gridspacingy="0.5px"
     width="22px"
     height="22px"
     inkscape:guide-points="true"
     inkscape:grid-points="true" />
  <metadata
     id="metadata1915">
    <rdf:RDF>
      <cc:Work
         rdf:about="">
        <dc:format>image/svg+xml</dc:format>
        <dc:type
           rdf:resource="http://purl.org/dc/dcmitype/StillImage" />
      </cc:Work>
    </rdf:RDF>
  </metadata>
  <g
     id="layer1"
     inkscape:label="Layer 1"
     inkscape:groupmode="layer">
    <path
       sodipodi:type="arc"
       style="opacity:1;fill:url(#radialGradient9462);fill-opacity:1;stroke:none;stroke-linecap:round;stroke-linejoin:round;stroke-opacity:0.49803922;display:inline"
       id="path9460"
       sodipodi:cx="25.013903"
       sodipodi:cy="38.632545"
       sodipodi:rx="9.8943748"
       sodipodi:ry="9.8943748"
       d="M 33.079155,32.901022 A 9.8943748,9.8943748 0 1 1 33.00416,32.796927"
       sodipodi:start="5.6653514"
       sodipodi:end="11.93557"
       sodipodi:open="true"
       transform="matrix(0.960196,0,0,0.960085,-14.51825,-27.58942)" />
    <path
       style="font-size:59.90107727px;font-style:normal;font-variant:normal;font-weight:bold;font-stretch:normal;text-align:start;line-height:125%;writing-mode:lr-tb;text-anchor:start;fill:#75a1d0;fill-opacity:1;stroke:#3465a4;stroke-width:0.85863799;stroke-linecap:butt;stroke-linejoin:miter;stroke-miterlimit:4;stroke-dasharray:none;stroke-opacity:1;font-family:Bitstream Vera Sans"
       d="M 17.270837,21.570681 L 17.270837,17.532423 L 21.570681,17.514447 L 21.570681,14.385054 L 17.274684,14.385054 L 17.270837,9.929319 L 14.247439,9.934312 L 14.249363,14.377065 L 9.9447095,14.410018 L 9.929319,17.527431 L 14.253209,17.514447 L 14.256095,21.558697 L 17.270837,21.570681 z "
       id="text1314"
       sodipodi:nodetypes="ccccccccccccc" />
  </g>
</svg>
